!!!!SEGMENT: pl-kk--kk-i-3--006-010_anonim--officium-primum-de-annuntiatione-de-bmv-ecce-virgo-concipiet.krn
!!!cenid: 15xx:587
!!!COM: Anonim
!!!COM-rismid: pe30004985
!!!CDT:
!!!CNT:
!!!OPR: Officium Primum de Annuntiatione de BMV
!!!OTL: Ecce virgo concipiet
!!!OMV: 010
!!!PDT:
!!!AGN:
!!!SMS-siglum: PL-Kk
!!!SMS-shelfmark: Kk.I.3
!!!SMS-shelfwork: 006-010 M
!!!SMS-variant:
!!!SMS-altvar:
!!!NIFC-rismid: 1001145506
!!!URL-scan: http://repozytorium.nifc.pl/skany/pl-kk-nut--i-3
!!!ONB-nifc: UWAGA: Discantus (s. 27r-v, skan 0029-0030), Tenor (s. 21r, skan 0193), Bassus (s. 24r-v, skan 0327-0328). Następna część: Deo gratias
!!!key: d
**kern	**text	**kern	**text	**kern	**text
*part3	*part3	*part2	*part2	*part1	*part1
*staff3	*staff3	*staff2	*staff2	*staff1	*staff1
*I"Basso	*	*I"Tenore	*	*I"Canto	*
*I'B	*	*I'T	*	*I'S	*
*Ibass	*	*Itenor	*	*Ivox	*
*ICvox	*	*ICvox	*	*ICvox	*
*clefF4	*	*clefC5	*	*clefC3	*
*k[b-]	*	*k[b-]	*	*k[b-]	*
*d:	*	*d:	*	*d:	*
*M3/2	*	*M3/2	*	*M3/2	*
=1-	=1-	=1-	=1-	=1-	=1-
!LO:TX:t=P:problem:znak menzuralny O|	!	!	!	!	!
!LO:TX:t=P:problem:adnotacja ".A. .T. 89:" lub ".A. .T. S I:"	!	!LO:TX:t=P:problem:brak bemola	!	!LO:TX:t=P:problem:znak menzuralny O|	!
1D	Ec-	1D	Ec-	2.d/	Ec-
.	.	.	.	4c/	.
2D/	-ce	1D/	-ce	2B-/	-ce
=2-	=2-	=2-	=2-	=2-	=2-
*2\right	*	*	*	*	*
2.F\	.	.	.	2.A/	.
*	*	*lig	*	*	*
.	.	1F	vir-	.	.
4E/	.	.	.	4G/	.
1D\	vir-	.	.	2F/	.
=3-	=3-	=3-	=3-	=3-	=3-
.	.	1E,	.	1G	.
2C/	.	.	.	.	.
*	*	*Xlig	*	*	*
2D/	.	1F\	.	2F/	.
=4-	=4-	=4-	=4-	=4-	=4-
*	*	*	*	*2\right	*
2.D/	-go	.	.	2.f\	Vir-
.	.	1D,	-go	.	.
4C/	.	.	.	4e\	.
1BB-/	con-	.	.	1d\	.
=5-	=5-	=5-	=5-	=5-	=5-
.	.	1D	con-	.	.
4AA/	.	.	.	4c/	.
4GG/	.	.	.	4B-/	-go
1AA/	.	1E/	.	1c\	.
=6-	=6-	=6-	=6-	=6-	=6-
.	.	.	.	.	.
1GG	-ci-	1G	-ci-	2d/	con-
.	.	.	.	2e/	-ci-
=7-	=7-	=7-	=7-	=7-	=7-
!LO:SIC:v:t=custos F	!	!	!	!LO:SIC:v:t=custos d	!
2FF/	.	1A	-pi-	2f/	.
!LO:LB:g=original	!	!	!	!LO:LB:g=original	!
1F	.	.	.	1d	.
*	*	*lig	*	*	*
.	.	1G\	-et	.	.
=8-	=8-	=8-	=8-	=8-	=8-
2E\	-Pi-	.	.	4c/	.
.	.	.	.	4B-/	.
2F\	.	1F	.	2A/	.
2.D/	.	.	.	2.B-/	.
*	*	*Xlig	*	*	*
=9-	=9-	=9-	=9-	=9-	=9-
*	*	*lig	*	*	*
.	.	1F	.	.	.
4C/	.	.	.	4A/	-pi-
4BB-/	.	.	.	4G/	.
4AA/	.	.	.	4F/	.
1GG/	.	1E/	.	2G/	-et
*	*	*Xlig	*	*	*
=10-	=10-	=10-	=10-	=10-	=10-
.	.	.	.	2B-/	.
*	*	*lig	*	*	*
2FF/	.	1F	.	2A/	.
2.BB-/	.	.	.	2.d/	.
=11-	=11-	=11-	=11-	=11-	=11-
.	.	1D	.	.	.
4AA/	.	.	.	4c/	.
2.GG/	-et	.	.	2.B-/	.
*	*	*Xlig	*	*	*
.	.	1D/	et	.	.
4AA/	.	.	.	4c/	.
=12-	=12-	=12-	=12-	=12-	=12-
2BB-/	.	.	.	2d/	.
1C	et	1E	.	2G/	et
.	.	.	.	2c/	.
=13-	=13-	=13-	=13-	=13-	=13-
2GG/	.	1G	pa-	1B-	pa-
2G\	Pa	.	.	.	.
!	!	!LO:SIC:v:t=custos c	!	!	!
1F\	.	1A\	.	1A/	.
=14-	=14-	=14-	=14-	=14-	=14-
.	.	.	.	.	.
!LO:SIC:v:t=custos D	!	!LO:LB:g=original	!	!LO:SIC:v:t=custos F	!
1E	.	1c	.	1G	.
=15-	=15-	=15-	=15-	=15-	=15-
!LO:PB:g=original	!	!	!	!LO:PB:g=original	!
2.D/	.	1d	.	2.F/	.
4E/	.	.	.	4G/	.
1F\	.	1A\	.	4A/	.
.	.	.	.	4B-/	.
=16-	=16-	=16-	=16-	=16-	=16-
.	.	.	.	2.c/	-ri
1C,	et	1G	-ri-	.	.
.	.	.	.	4d/	.
.	.	.	.	2e\	et
=17-	=17-	=17-	=17-	=17-	=17-
2.F\	fi-	1A,	.	2c/	.
.	.	.	.	1f	.
4E/	.	.	.	.	.
2D/	-li-	1A\	-et	.	.
=18-	=18-	=18-	=18-	=18-	=18-
2C,/	.	.	.	2e/	.
2D/	.	1A	fi-	2d/	fi-
2AA/	.	.	.	2c/	.
=19-	=19-	=19-	=19-	=19-	=19-
1D	.	1A	-li-	2f\	-li-
.	.	.	.	2e\	.
1GG/	.	1B-\	.	1d\	.
=20-	=20-	=20-	=20-	=20-	=20-
.	.	.	.	.	.
*	*	*lig	*	*	*
2.AA/	-um	1c	.	2c/	.
.	.	.	.	2.A/	.
4BB-/	.	.	.	.	.
=21-	=21-	=21-	=21-	=21-	=21-
2C/	et	1A	.	.	.
.	.	.	.	4G/	.
2.D/	vo-	.	.	2.F/	.
*	*	*Xlig	*	*	*
.	.	1A,\	-vm	.	.
!	!	!	!	!LO:SIC:v:t=custos A	!
4E/	.	.	.	4G/	.
=22-	=22-	=22-	=22-	=22-	=22-
!LO:SIC:v:t=custos E	!	!	!	!LO:LB:g=original	!
1F	.	.	.	2A/	-um
.	.	1G	et	2B-/	.
!LO:LB:g=original	!	!	!	!	!
2E/	.	.	.	2c/	.
=23-	=23-	=23-	=23-	=23-	=23-
1D	-ca-	1B-	vo-	1d	et
1C/	.	1c\	.	1e\	vo-
=24-	=24-	=24-	=24-	=24-	=24-
.	.	.	.	.	.
*	*	*lig	*	*	*
2F\	-bi-	1A	-ca-	1f	-va-
2D,/	.	.	.	.	.
=25-	=25-	=25-	=25-	=25-	=25-
2.G\	.	1G	.	2d/	.
.	.	.	.	2.g\	-bi-
4F\	.	.	.	.	.
*	*	*Xlig	*	*	*
*	*	*lig	*	*	*
4E\	.	1c\	-bi-	.	.
4D/	.	.	.	4f\	.
=26-	=26-	=26-	=26-	=26-	=26-
2C/	.	.	.	4e\	.
.	.	.	.	4d/	.
2F\	.	1A	.	2c/	.
2D/	-tur	.	.	2d/	.
*	*	*Xlig	*	*	*
=27-	=27-	=27-	=27-	=27-	=27-
1C	.	1c	.	2e\	.
.	.	.	.	1f	-tur
1C/	.	1G\	-tur	.	.
=28-	=28-	=28-	=28-	=28-	=28-
.	.	.	.	2e\	.
2FF/	.	1A	.	2.f\	.
2F\	.	.	.	.	.
.	.	.	.	4e\	.
=29-	=29-	=29-	=29-	=29-	=29-
1G	.	1B-	.	1d	.
!	!	!	!	!LO:SIC:v:t=custos A	!
2E/	.	1c\	.	2c/	.
*	*	*	*	*clefC4	*
=30-	=30-	=30-	=30-	=30-	=30-
!	!	!	!	!LO:LB:g=original	!
2.F\	no-	.	.	2.A/	.
!	!	!LO:SIC:v:t=custos F	!	!	!
.	.	1A	.	.	.
4E/	[[men]]	.	.	4B-/	.
4D/	.	.	.	2c/	.
!LO:SIC:v:t=custos D	!	!	!	!	!
4C/	.	.	.	.	.
=31-	=31-	=31-	=31-	=31-	=31-
!LO:LB:g=original	!	!LO:LB:g=original	!	!	!
2D/	-e-	1F	no-	2A/	no-
1BB-	-men	.	.	1d	.
.	.	1F,\	-m(en)	.	.
=32-	=32-	=32-	=32-	=32-	=32-
4AA/	.	.	.	4c/	-mem
4GG/	.	.	.	4B-/	.
2FF/	.	1F	e-	2A/	.
2BB-/	e-	.	.	2d\	e-
=33-	=33-	=33-	=33-	=33-	=33-
1FF	.	1A	.	2c\	.
.	.	.	.	1A	.
1GG/	-ius	1B-\	.	.	.
=34-	=34-	=34-	=34-	=34-	=34-
.	.	.	.	2G/	.
1FF	.	1A	.	4A/	.
.	.	.	.	4G/	.
.	.	.	.	4F/	.
.	.	.	.	4E/	.
=35-	=35-	=35-	=35-	=35-	=35-
*	*	*lig	*	*	*
2r	.	1A	-ius	4D/	.
.	.	.	.	4C/	.
2FF/	e-	.	.	1F	-ius
*lig	*	*	*	*	*
1C/	.	1G,\	.	.	.
*	*	*Xlig	*	*	*
=36-	=36-	=36-	=36-	=36-	=36-
!	!	!	!	!LO:SIC:v:t=custos F	!
.	.	.	.	2E/	.
!	!	!	!	!LO:LB:g=original	!
1D	.	1F	E-	2F/	.
.	.	.	.	2D/	.
*Xlig	*	*	*	*	*
=37-	=37-	=37-	=37-	=37-	=37-
*	*	*lig	*	*	*
1C	.	1G	.	2.E/	e-
.	.	.	.	4F/	.
1C/	.	1E/	.	1G/	.
*	*	*Xlig	*	*	*
=38-	=38-	=38-	=38-	=38-	=38-
.	.	.	.	.	.
*	*	*lig	*	*	*
2D/	.	1F	.	2F/	.
2.BB-/	-ma-	.	.	2.D/	.
=39-	=39-	=39-	=39-	=39-	=39-
.	.	1D	.	.	.
4C/	.	.	.	4E/	.
4D/	.	.	.	4F/	.
4E/	.	.	.	4G/	.
*	*	*Xlig	*	*	*
!LO:SIC:v:t=custos D	!	!	!	!	!
2F/	.	1D/	-ma-	2A/	.
=40-	=40-	=40-	=40-	=40-	=40-
!LO:LB:g=original	!	!	!	!	!
2.D/	.	.	.	2.F/	-ma-
.	.	1F	.	.	.
4C/	-nu-	.	.	4G/	.
4BB-/	.	.	.	2A/	.
4AA/	.	.	.	.	.
=41-	=41-	=41-	=41-	=41-	=41-
1GG	.	1G	.	1B-	.
2.FF/	-el	1A\	.	2.A/	-nu-
=42-	=42-	=42-	=42-	=42-	=42-
.	.	.	.	.	.
4GG/	.	.	.	4B-\	.
2AA/	.	1F	-nu-	2c\	.
2BB-/	.	.	.	2d\	.
=43-	=43-	=43-	=43-	=43-	=43-
1C	.	1E	.	1e	.
1D\	.	1D/	.	1f\	.
=44-	=44-	=44-	=44-	=44-	=44-
.	.	.	.	.	.
1AA	.	1C	.	1e	-el
=45-	=45-	=45-	=45-	=45-	=45-
1.Dl;>	.	1.D	-el	1.dl;<	.
=-	=-	=-	=-	=-	=-
*-	*-	*-	*-	*-	*-
!!!system-decoration: [(s1,s2,s3)]
!!!RDF**kern: < = below
!!!RDF**kern: > = above
!!!RDF**kern: l = terminal long
!!!AIN: 1 bass 1 tenor 1 vox
!!!ENC: Mateusz Solarz
!!!END: 2021-12-29
!!!ENC: Marta Chmielewska
!!!END: 2021-12-31
